src/svg/facebook.svg

<?xml version="1.0" encoding="UTF-8"?>
<svg width="52px" height="52px" viewBox="0 0 52 52" version="1.1" xmlns="http://www.w3.org/2000/svg" xmlns:xlink="http://www.w3.org/1999/xlink">
    <!-- Generator: Sketch 47.1 (45422) - http://www.bohemiancoding.com/sketch -->
    <title>facebook</title>
    <desc>Created with Sketch.</desc>
    <defs></defs>
    <g id="Icons" stroke="none" stroke-width="1" fill="none" fill-rule="evenodd">
        <g id="facebook">
            <circle id="Oval" fill="#BDC3C7" cx="26" cy="26" r="26"></circle>
            <path d="M13.5446667,12 C12.6918333,12 12,12.6918333 12,13.5446667 L12,38.4553333 C12,39.3093333 12.6918333,40 13.5446667,40 L26.9543333,40 L26.9543333,29.157 L23.3038333,29.157 L23.3038333,24.9325 L26.9543333,24.9325 L26.9543333,21.8116667 C26.9543333,18.1961667 29.164,16.2291667 32.3898333,16.2291667 C33.9356667,16.2291667 35.2645,16.3423333 35.6518333,16.3936667 L35.6518333,20.1736667 L33.4106667,20.1736667 C31.6606667,20.1736667 31.32,21.0148333 31.32,22.2398333 L31.32,24.936 L35.5013333,24.936 L34.9588333,29.171 L31.32,29.171 L31.32,40 L38.4541667,40 C39.3093333,40 40,39.3093333 40,38.4553333 L40,13.5446667 C40,12.6918333 39.3093333,12 38.4553333,12 L13.5446667,12 Z" id="Shape" fill="#FFFFFF" fill-rule="nonzero"></path>
        </g>
    </g>
</svg>

<svg width="52" height="52" xmlns="http://www.w3.org/2000/svg"><path d="M26 52c14.36 0 26-11.64 26-26S40.36 0 26 0 0 11.64 0 26s11.64 26 26 26zM13.545 12c-.853 0-1.545.692-1.545 1.545v24.91c0 .854.692 1.545 1.545 1.545h13.41V29.157h-3.651v-4.224h3.65v-3.121c0-3.616 2.21-5.583 5.436-5.583 1.546 0 2.874.113 3.262.165v3.78H33.41c-1.75 0-2.091.84-2.091 2.066v2.696h4.181l-.542 4.235H31.32V40h7.134C39.31 40 40 39.31 40 38.455v-24.91c0-.853-.69-1.545-1.545-1.545h-24.91z" fill="#D8D8D8" fill-rule="evenodd"/></svg>
